X:1
T:Title
%%score ( 1 2 ) { 3 | 4 }
L:1/8
Q:1/4=120
M:4/4
K:A
V:1 treble nm="Grand Piano, Soprano"
V:2 treble 
V:3 bass nm="Grand Piano, Bass"
V:4 bass 
V:1
 z4 z2 [CE]>[CE] | [CA]2 [CA]2 [CA]2 [CA]>[DB] | [Ec]2 [CA]2 [CE]2 [EA]>[EA] | %3
w: 1.~You~ may~|know~ this~ day~ that~ your~|sins~ are~ gone,~ If~ you'll~|
 [EG]2 [EB]2 [EB]2 [EB]>[EB] | [EA]2 [Ac]2 [Ac]2 [CE]>[CE] | [CA]2 [CA]2 [CA]2 [EA]>[EB] | %6
w: come~ to~ Christ~ and~ for|sake~ the~ wrong,~ If~ you~|will~ re pent,~ from~ the~|
 [Ec]2 [Ae]2 [Ae]2 [=Gc]>[Gc] | [Fd]2 [DF]2 [CE][Ec][Ec][EB] | %8
w: heart~ for give;~ Do~ o|bey,~ be lieve~ Him,~ sin ner,~|
 [EA]2 [EG]2 [EA]2[Q:1/4=120] [CE][CE][Q:1/4=12] | [EA]2 [Ec]2 [Ec][EB][EA][EA] | B6 z2 | %11
w: look~ and~ live.~ * *|||
 [EB]2 [Gd]2 [Ed][Ec][EA][EB] | c6 z2 | [CA]2 [Ec]2 [Ee]2 [Ec][EB] | %14
w: |||
 [EA]2 [=Gc]2 [Fd]2[Q:1/4=120] [Ee][Fd][Q:1/4=12] | [Ec]2 [CE]2 [Ec][Ed][Ec][DB] | A6 z2 |] %17
w: |||
V:2
 x8 | x8 | x8 | x8 | x8 | x8 | x8 | x8 | x8 | x8 | E2 EE G2 EE | x8 | E2 EE A2 [CE][CE] | x8 | x8 | %15
 x8 | C2 ED C2 z2 |] %17
V:3
 z4 z2 A,>A, | E,2 E,2 E,2 E,>E, | A,2 A,2 A,2[K:treble] C>C | B,2 D2 D2 D>D | %4
 C2 E2 E2[K:bass] A,>A, | E,2 E,2 E,2 A,>G, | A,2 C2 C2 A,>A, | A,2 A,2 A,A,A,[K:treble]D | %8
 C2 B,2 C2 A,[K:bass]A, | C2 A,2 A,G,A,A, | G,A,B,[K:treble]C D2 DD | D2[K:bass] B,2 B,A,A,G, | %12
 A,B,[K:treble]CD E2 A,A, | A,2 A,2 C2 A,G, | A,2 A,2 A,2 A,A, | A,2 A,2 A,B,A,G, | %16
 A,2 G,F, E,2 z2 |] %17
V:4
 z4 z2 A,,>A,, | A,,2 A,,2 A,,2 A,,>A,, | A,,2 A,,2 A,,2 A,,>A,, | E,2 E,2 E,2 E,>E, | %4
 A,2 A,2 A,2 A,,>A,, | A,,2 A,,2 A,,2 C,>E, | z2 A,2 A,2 z2 | D,2 D,2 E,E,E,E, | %8
 E,2 E,2 [A,,A,]2 A,,A,, | A,,2 A,,2 A,,B,,C,C, | E,2 E,E, E,2 E,E, | E,2 E,2 E,E,C,E, | %12
 z2 E,E, A,,2 A,,A,, | A,,2 z2 A,2 A,,B,, | C,2 A,,2 D,2 C,D, | E,2 E,2 E,E,E,E, | A,,6 z2 |] %17

